src/icons/icons_set_04/014-livre.svg

<svg height="50" viewBox="0 0 50 50" width="50" xmlns="http://www.w3.org/2000/svg"><path d="m39.6800001 14h5.0699999v26h-19.75-19.49902344v-26h4.81902334v20.6661083c0 .9173574.7358786 1.6651065 1.6531186 1.679785 4.1903029.0670572 7.3008344.4155009 9.2881593 1.019759.8727311.2653591 1.478956.566102 1.8162521.8629773.1931548.1700075.24247.2702346.24247.3902067v.3810954h1.6800001 1.6800001v-.3810954c0-.1199721.0493152-.2201992.24247-.3902067.3372961-.2968753.943521-.5976182 1.8162521-.8629773 1.9873249-.6042581 5.0978564-.9527018 9.2881593-1.019759.91724-.0146785 1.6531186-.7624276 1.6531186-1.679785zm-14.6800001 20.0000071.4973229.0026557.1167824-21.8696452c2.7647927-1.9776152 6.8934243-2.58007936 12.3858947-1.8073924v24.3404831c-8.6666667.1386922-13 1.4562682-13 3.952728v-4.6188292 4.6188292c0-2.4964598-4.3333333-3.8140358-13-3.952728v-24.3404831c5.6450776-.79415591 9.8494755-.1356825 12.6131937 1.9754202z"/></svg>

<?xml version="1.0" encoding="UTF-8"?>
<svg width="50px" height="50px" viewBox="0 0 50 50" version="1.1" xmlns="http://www.w3.org/2000/svg" xmlns:xlink="http://www.w3.org/1999/xlink">
    <!-- Generator: Sketch 52.4 (67378) - http://www.bohemiancoding.com/sketch -->
    <title>014-livre</title>
    <desc>Created with Sketch.</desc>
    <g id="014-livre" stroke="none" stroke-width="1" fill="none" fill-rule="evenodd">
        <path d="M39.6800001,14 L44.75,14 L44.75,40 L25,40 L5.50097656,40 L5.50097656,14 L10.3199999,14 L10.3199999,34.6661083 C10.3199999,35.5834657 11.0558785,36.3312148 11.9731185,36.3458933 C16.1634214,36.4129505 19.2739529,36.7613942 21.2612778,37.3656523 C22.1340089,37.6310114 22.7402338,37.9317543 23.0775299,38.2286296 C23.2706847,38.3986371 23.3199999,38.4988642 23.3199999,38.6188363 L23.3199999,38.9999317 L25,38.9999317 L26.6800001,38.9999317 L26.6800001,38.6188363 C26.6800001,38.4988642 26.7293153,38.3986371 26.9224701,38.2286296 C27.2597662,37.9317543 27.8659911,37.6310114 28.7387222,37.3656523 C30.7260471,36.7613942 33.8365786,36.4129505 38.0268815,36.3458933 C38.9441215,36.3312148 39.6800001,35.5834657 39.6800001,34.6661083 L39.6800001,14 Z M25,34.0000071 L25.4973229,34.0026628 L25.6141053,12.1330176 C28.378898,10.1554024 32.5075296,9.55293824 38,10.3256252 L38,34.6661083 C29.3333333,34.8048005 25,36.1223765 25,38.6188363 L25,34.0000071 L25,38.6188363 C25,36.1223765 20.6666667,34.8048005 12,34.6661083 L12,10.3256252 C17.6450776,9.53146929 21.8494755,10.1899427 24.6131937,12.3010454 L25,34.0000071 Z" id="Combined-Shape" fill="#000000" fill-rule="nonzero"></path>
    </g>
</svg>
